svgs/charts/pie-chart-02.svg

<svg width="24" height="24" viewBox="0 0 24 24" fill="none" xmlns="http://www.w3.org/2000/svg">
<path d="M17.2 13.9821C17.477 13.9821 17.6155 13.9821 17.7278 14.0436C17.8204 14.0943 17.9065 14.1896 17.9478 14.2868C17.9978 14.4047 17.9852 14.53 17.96 14.7808C17.8296 16.0809 17.3822 17.3335 16.6518 18.4267C15.7727 19.7423 14.5233 20.7676 13.0615 21.3731C11.5997 21.9786 9.99113 22.1371 8.43928 21.8284C6.88743 21.5197 5.46197 20.7578 4.34315 19.639C3.22433 18.5201 2.4624 17.0947 2.15372 15.5428C1.84504 13.991 2.00347 12.3824 2.60897 10.9206C3.21447 9.45883 4.23985 8.2094 5.55544 7.33035C6.64856 6.59995 7.90125 6.15251 9.20131 6.02207C9.45207 5.99691 9.57745 5.98433 9.69528 6.03432C9.79249 6.07556 9.88776 6.16175 9.9385 6.25435C10 6.36661 10 6.50511 10 6.7821V13.1821C10 13.4621 10 13.6021 10.0545 13.7091C10.1024 13.8032 10.1789 13.8797 10.273 13.9276C10.38 13.9821 10.52 13.9821 10.8 13.9821H17.2Z" stroke="#1C1D20" stroke-width="1.5" stroke-linecap="round" stroke-linejoin="round"/>
<path d="M14 2.7821C14 2.5051 14 2.3666 14.0615 2.25434C14.1122 2.16174 14.2075 2.07555 14.3047 2.03431C14.4225 1.98432 14.5479 1.9969 14.7987 2.02205C16.6271 2.20545 18.346 3.01441 19.6569 4.32525C20.9677 5.63609 21.7767 7.355 21.9601 9.1834C21.9852 9.43417 21.9978 9.55956 21.9478 9.67739C21.9066 9.77459 21.8204 9.86986 21.7278 9.9206C21.6155 9.9821 21.477 9.9821 21.2 9.9821L14.8 9.9821C14.52 9.9821 14.38 9.9821 14.273 9.92761C14.1789 9.87967 14.1024 9.80318 14.0545 9.7091C14 9.60214 14 9.46213 14 9.1821V2.7821Z" stroke="#1C1D20" stroke-width="1.5" stroke-linecap="round" stroke-linejoin="round"/>
</svg>

<svg fill="none" xmlns="http://www.w3.org/2000/svg" viewBox="0 0 24 24"><path d="M17.2 13.982c.277 0 .416 0 .528.062a.53.53 0 0 1 .22.243c.05.118.037.243.012.494a8 8 0 1 1-8.759-8.759c.251-.025.376-.038.494.012a.53.53 0 0 1 .243.22c.062.113.062.251.062.528v6.4c0 .28 0 .42.055.527a.5.5 0 0 0 .218.219c.107.054.247.054.527.054h6.4ZM14 2.782c0-.277 0-.415.062-.528a.53.53 0 0 1 .243-.22c.117-.05.243-.037.494-.012a8 8 0 0 1 7.161 7.161c.025.251.038.377-.012.494a.53.53 0 0 1-.22.244c-.113.061-.251.061-.528.061h-6.4c-.28 0-.42 0-.527-.054a.5.5 0 0 1-.218-.219C14 9.602 14 9.462 14 9.182v-6.4Z" stroke="#1C1D20" stroke-width="1.5" stroke-linecap="round" stroke-linejoin="round"/></svg>
